svg/fluentui-system-icons/ic_fluent_toggle_multiple_16_regular.svg

<svg width="16" height="16" viewBox="0 0 16 16" fill="none" xmlns="http://www.w3.org/2000/svg">
<path d="M6 4C6 4.55228 5.55228 5 5 5C4.44772 5 4 4.55228 4 4C4 3.44772 4.44772 3 5 3C5.55228 3 6 3.44772 6 4ZM2 4C2 2.34315 3.34315 1 5 1H11C12.6569 1 14 2.34315 14 4C14 5.65685 12.6569 7 11 7H5C3.34315 7 2 5.65685 2 4ZM5 2C3.89543 2 3 2.89543 3 4C3 5.10457 3.89543 6 5 6H11C12.1046 6 13 5.10457 13 4C13 2.89543 12.1046 2 11 2H5ZM11 12C11.5523 12 12 11.5523 12 11C12 10.4477 11.5523 10 11 10C10.4477 10 10 10.4477 10 11C10 11.5523 10.4477 12 11 12ZM2 11C2 9.34315 3.34315 8 5 8H11C12.6569 8 14 9.34315 14 11C14 12.6569 12.6569 14 11 14H5C3.34315 14 2 12.6569 2 11ZM5 9C3.89543 9 3 9.89543 3 11C3 12.1046 3.89543 13 5 13H11C12.1046 13 13 12.1046 13 11C13 9.89543 12.1046 9 11 9H5Z" fill="#212121"/>
</svg>

<svg xmlns="http://www.w3.org/2000/svg" width="16" height="16"><path d="M6 4a1 1 0 1 1-2 0 1 1 0 0 1 2 0ZM2 4a3 3 0 0 1 3-3h6a3 3 0 1 1 0 6H5a3 3 0 0 1-3-3Zm3-2a2 2 0 1 0 0 4h6a2 2 0 1 0 0-4H5Zm6 10a1 1 0 1 0 0-2 1 1 0 0 0 0 2Zm-9-1a3 3 0 0 1 3-3h6a3 3 0 1 1 0 6H5a3 3 0 0 1-3-3Zm3-2a2 2 0 1 0 0 4h6a2 2 0 1 0 0-4H5Z"/></svg>
